X: 10120
T: Dill Pickles
R: barndance
M: 4/4
K: Gmajor
|:(3Bc^c|d>eg>d e>gd>e|g>de>g- g>e d2|G>AB>G A>BG>A|B>GA>B- B>A G2|
D>EF>D E>F-F>E|F>DE>F- F>E D2|1 G>FG>E- E>FG>^G|A>^GA>d- d2:|2 A>^GA>d- d>B A2|G4- G2||
|:(3GFE|D2 ^D2 E2 F2|G2 e>d- d>e d2|F2 e>d- d>e d2|G2 e>d- d>e d2|
D>d^D>d E>dF>d|G2 e>d- d>e d2|1 A>B (3^cBA B>c- c2|d4- d2:|2 d>e (3fed e>f- f2|g4- g2||

